X: 1
T: la Grande Gigue Simple No.1
C: from Ben Guillamette
O: Qu\'ebec
R:
S: Fiddle Hell Online 2020-11-05
Z: 2021 John Chambers <jc:trillian.mit.edu>
M: 3/2
L: 1/8
K: D
"^A"|:\
"D"A,DDE FEFD "A"EGFD |1,2 "D"A,DDE FDDB AGFD :|3 A,DDE FDDB AGFA ||
"^B"|:\
"D"dfed "A"cABc ecBc | "D"dfed "A"cAdB AGFA |\
"D"dfed "A"cABc ecBc | "D"defd "G"gd"D"fd "A"edBc :|
"^C"|:\
"D"defg afdf "A"ecAc | "D"defg afdf "A"gece :| "D"defg afdB "A"AGFD |]
